X:1
T:Title
%%score { ( 1 2 ) | ( 3 4 ) }
L:1/8
Q:1/4=106
M:4/4
K:D
V:1 treble nm="Grand Piano"
V:2 treble 
V:3 bass 
V:4 bass 
V:1
 GFGF [EG]2 [Ge]2 | [=Fd]4 [FA]4 | =cBB^A [=FB]2 [B,F=A]2 | [EG]6 z2 | E-[EF]GF [EG]2 [^Ae]2 | %5
w: Thoro~Harris * * * * *|||||
 [=FAd]4 [A=f]4 | .B2 z2 z4 | [E=c]6 z2 | z4 [=FB]4 | z4 [E=c]4 | .[=FA]2 .[B,FG]2 [Fd]2 [F^d]2 | %11
w: ||||||
 e=cBA A.GA.G | z4 [=FB]4 | z4 [E=c]4 | [=Fd]cd=f [Ge]2 d2 | =c6[K:bass] z2 |] %16
w: |||||
V:2
 E2 z2 z4 | z2 [A,D]2 [A,D]2 [A,D]2 | G2 z2 z4 | z2 =C2 C2 z2 | .G2 z2 z4 | z2 [A,D]2 z2 [A,D]2 | %6
 =F-[F^A]BA [FB]2 [Fd]2 | z2 =C2 C2 z2 | .[=FA]2 .[B,DFG]2 z2 [B,D]2 | .[EA]2 .[=CEG]2 z2 C2 | x8 | %11
 E2 z2 E2 z2 | .[=FA]2 .[B,DFG]2 z2 [B,D]2 | .[EA]2 .[=CEG]2 z2 C2 | x8 | %15
 z[K:bass] A,, G,,2 =C,4 |] %16
V:3
 =C,2 [E,G,=CE]2 C,2 [G,C]2 | =F,,2 =F,2 F,2 F,2 | G,,2 [G,D=F]2 G,,2 G,2 | =C,2 G,2 G,2 z2 | %4
 =C,2 [E,G,=CE]2 C,2 [G,CG]2 | =F,,2 =F,2 [F,A,D]2 F,2 | G,,2 [G,D=F]2 G,,2 [G,B,]2 | %7
 =C,2 G,2 G,2 z2 | z[K:treble] G G,2[K:bass] G,,2 G,2 | z[K:treble] G G,2[K:bass] =C,2 G,2 | %10
 z[K:treble] G G,2[K:bass] G,,2 [G,B,]2 | =C,2 [F,=C^D]2 C,2 [G,CE]2 | %12
 z[K:treble] G G,2[K:bass] G,,2 G,2 | z[K:treble] G G,2[K:bass] =C,2 G,2 | %14
 z[K:treble] E=FA[K:bass] G,,2 [G,B,F]2 | E6 z2 |] %16
V:4
 x8 | x8 | x8 | x8 | x8 | x8 | x8 | x8 | G,,2[K:treble] z2[K:bass] z4 | %9
 =C,2[K:treble] z2[K:bass] z4 | D,2[K:treble] z2[K:bass] z4 | x8 | G,,2[K:treble] z2[K:bass] z4 | %13
 =C,2[K:treble] z2[K:bass] z4 | G,,2[K:treble] [G,B,]2[K:bass] z4 | x8 |] %16

